X:173 
T:Rakes of Terrygolden (reel), The  
F:file ID: cre.5/173rakes_t
B:CRE5.165 (RÃÂÃÂÃÂÃÂ¡bairÃÂÃÂÃÂÃÂ­ Terrygolden)
M:4/4
Q:180
R:reel
K:G
dc|:BGdG BGAc|BGdG Bdgd|BGdG BGAc|BGdB c2 :|
A2|Ggde fdcA|Ggde fgag|fefd cBAF|Ggfa g2de|
fddA fddA|Ggde fgag|fefd cBAF|Ggfa g4|]

%%%

